icon/cg/spinner-two.svg

<svg viewBox="0 0 24 24" fill="none" xmlns="http://www.w3.org/2000/svg" height="1em" width="1em">
  <path opacity="0.2" fill-rule="evenodd" clip-rule="evenodd" d="M12 19C15.866 19 19 15.866 19 12C19 8.13401 15.866 5 12 5C8.13401 5 5 8.13401 5 12C5 15.866 8.13401 19 12 19ZM12 22C17.5228 22 22 17.5228 22 12C22 6.47715 17.5228 2 12 2C6.47715 2 2 6.47715 2 12C2 17.5228 6.47715 22 12 22Z" fill="currentColor"/>
  <path d="M12 22C17.5228 22 22 17.5228 22 12H19C19 15.866 15.866 19 12 19V22Z" fill="currentColor"/>
  <path d="M2 12C2 6.47715 6.47715 2 12 2V5C8.13401 5 5 8.13401 5 12H2Z" fill="currentColor"/>
</svg>

<svg width="24" height="24" fill="none" xmlns="http://www.w3.org/2000/svg"><path opacity=".2" fill-rule="evenodd" clip-rule="evenodd" d="M12 19a7 7 0 1 0 0-14 7 7 0 0 0 0 14Zm0 3c5.523 0 10-4.477 10-10S17.523 2 12 2 2 6.477 2 12s4.477 10 10 10Z" fill="currentColor"/><path d="M12 22c5.523 0 10-4.477 10-10h-3a7 7 0 0 1-7 7v3ZM2 12C2 6.477 6.477 2 12 2v3a7 7 0 0 0-7 7H2Z" fill="currentColor"/></svg>
